X:1
T:111 - Não Tardará
T:Letra: Daniel Webster Whittle (1840-1901)
T:Trad.: Salomão Luiz Ginsburg (1867-1927)
T:Música: James McGranahan (1840-1907)
M:6/8
L:1/8
Q:1/4=90
K:Bb
V:1
"Bb"FDE F2B | "F7"A>Bc "Bb"B3 | FDE FBc | de>d "F"c2z | "Bb"dc>B "Eb"B=AG | "Bb"F>DF B3 | "F7"A>AA ABc | "Bb"B3 z3 || "Eb"e>ee eee | "Bb"ddd d3 | d>cd fed | "F"c3 "F7"z3 | "Bb"F>DE FBc | d>cd "Eb"He3 | "F7"e>dc cBA | "Bb"B3 z3 |]
w: 1.~Cris-to do céu em bre-ve vi-rá E-lea-fir-mou-nos, e não tar-da-rá; Oh, quea-le-gri-a, que gló-ria se-rá, Quan-do Je-sus re-gres-sar!  Cris-to não tar-da, não tar-daa vol-tar;    Cris-to não tar-daa vol-tar!    Oh, quea-le-gri-a, que gló-ria se-rá,    Quan-do Je-sus re-gres-sar! 
w: 2.~Em bre-veos mon-tes res-sur-gi-rão; To-dos os cren-tes, oh, seen-con-tra-rão! Jun-tos, a-le-gres, ao céu su-bi-rão! Quan-do Je-sus re-gres-sar!  
w: 3.~Bre-vees-ta ter-ra go-za-rá paz; Pre-so,en-cer-ra-do se-rá sa-ta-nás! Tu-doo queé vil dei-xa-re-mos a-trás, Quan-do Je-sus re-gres-sar!  
w: 4.~Cris-to não tar-da, não tar-daem vir, Quan-do se-rá, no glo-rio-so por-vir? Oh, quea-le-gri-a te-re-mos em ir, Quan-do Je-sus re-gres-sar!                     
W: 
W: 
W: 1. Cristo do céu em breve virá
W: Ele afirmou-nos, e não tardará;
W: Oh, que alegria, que glória será,
W: Quando Jesus regressar!
W: 
W:    (Estribilho)
W:    Cristo não tarda, não tarda a voltar;
W:    Cristo não tarda a voltar!
W:    Oh, que alegria, que glória será,
W:    Quando Jesus regressar!
W:
W: 2. Em breve os montes ressurgirão;
W: Todos os crentes, oh, se encontrarão!
W: Juntos, alegres, ao céu subirão!
W: Quando Jesus regressar!
W: 
W:
W:
W: 3. Breve esta terra gozará paz;
W: Preso, encerrado será satanás!
W: Tudo o que é vil deixaremos atrás,
W: Quando Jesus regressar!
W: 
W: 4. Cristo não tarda, não tarda em vir,
W: Quando será, no glorioso porvir?
W: Oh, que alegria teremos em ir,
W: Quando Jesus regressar!
W: 
W:





